X:1
T:Cäcilie
T:Richard Stauss, op 27 n° 2
T:Heinrich Hart
T:Für tief Stimme
%%score ( 1 2 ) { ( 3 5 7 ) | ( 4 6 8 ) }
L:1/8
Q:1/4=100
M:4/4
K:C
V:1 treble nm="Voice" snm="Vo."
V:2 treble 
V:3 treble nm="Piano" snm="Pno."
V:5 treble 
V:7 treble 
V:4 bass 
V:6 bass 
V:8 bass 
V:1
"^Sehr lebhaft und drängend.""^Vivo e con ardore" z8 | z8 | z8 | z4 z2 (3D E F | G4 D2 z D | %5
w: |||Wenn du es|wüss- test was|
w: |||If you but|knew, sweet, what|
 E3/2 F/ G2 z E (3E F G | ^G2 A A c2 B A | A4 G G G G | c4 c4 | B3 d d2 E2 | z E _B4 A G | %11
w: träu- men heisst von bren- nen- den|Küs- sen, von Wan- dern und|ru- hen mit der Ge-|lieb- ten|Aug' in Au- ge|und ko- send und|
w: 'tis to dream of fond bur- ning|kiss- es, of wand'r- ing and|rest- ing with the be-|lov'd one;|gaz- ing fond- ly|car- ess- ing and|
 E4 F2 z2 | z2 (3A B c c2 D2 | z B d4 G F | E4 z4 | z2 (3C D _E G2 ^F2 | z _B _G4 F2 | _E4 z2 E2 | %18
w: plau- dernd|wenn du es wüss- test,|du neig- test dein|Herz!|Wenn du es wüss- test|was ban- gen|heisst in|
w: whisp'r- ring|could I but tell you,|your heart would as-|sent.|If you but knew, sweet,|the ang- guish|* through|
 _G2 G F F2 _E2 | z _E _B4 _A B | =G6 G2 | ^G6 G2 | ^G2 ^F2 =A2 G2 | ^G2 =G G _B2 _E _D | _D4 C4 | %25
w: ein- sa- men Näch- ten|und schau- ert vom|Sturm, da|Nie- mand|trö- stet mil- den|Mun- des die kampf- mü- de|See- le|
w: nights long and lone- ly|and rocked by the|storm when|none is|near to soothe and|com- fort the strife wea- ry|spir- it,|
 z2 (3C F G _B2 _A2 | z c _e4 _A G | F4 z4 | z8 | z8 | z2 (3^F G A c2 _E2 | z _B _e6- | %32
w: wenn du es wüss- test,|du kä- mest zu|mir.|||Wenn du es wüss- test,|was le-|
w: could I but tell you,|you'd come, sweet, to|me.|||If you but knew sweet,|what liv-|
 e2 d2 _d3 (_E | c4 c3 c | c4 _B4 | _d2 d3 d d2 | _d4 c4) | z _E E4 F G | _A8 | c3 _B B2 _A2 | %40
w: * ben heisst um-|haucht von der|Gott- heit|welt- scha- fen- dem|A- them|zu schwe- ben em-|por|licht- ge- tra- gen|
w: * ing is *|crea- tive *|breath of|God, Lord * and|Ma- ker|to hov- er up-|borne|dove- like pin- ions|
 z2 _A2 c2 _d _e | f8- | f4 z4 | z8 | z2 A2 B2 c2 | c4 G2 z2 | z2 (3^F G A d2 c2 | z2 c2 (c4- | %48
w: zu se- li- gen|Höh'n|_||wenn du es|wüss- test,|wenn du es wüss- test,|du leb-|
w: to re- gions of|light|_||If you but|knew it|could I but tell you,|you'd dwell,|
 c4 e4- | e4 g4- | g2) A2 z2 d2 | c6 z2 | z8 | z8 | z8 | !fermata!z8 |] %56
w: ||* test mit|mir!|||||
w: _ _||* sweet, with|me.|||||
V:2
 x8 | x8 | x8 | x8 | x8 | x8 | x8 | x8 | x8 | x8 | x8 | x8 | x8 | x8 | x8 | x8 | x6 F F | %17
w: |||||||||||||||||
w: ||||||||||||||||* of|
 _E3 E x4 | x8 | x8 | x8 | x8 | x8 | x8 | x8 | x8 | x8 | x8 | x8 | x8 | x8 | x8 | x4 _d2 _E _D | %33
w: ||||||||||||||||
w: wak- ing|||||||||||||||* in the|
 x4 c4 | x8 | x2 _d4 x2 | x8 | x8 | _A6 A2 | x8 | x8 | x8 | x8 | x8 | x8 | x8 | x8 | x8 | x8 | x8 | %50
w: |||||||||||||||||
w: |||||* on||||||||||||
 x8 | x8 | x8 | x8 | x8 | x8 |] %56
w: ||||||
w: ||||||
V:3
!ff! ([ege']4 [cc']2- (3[cc'][Bb][Aa] | [Gc_eg]3 [^F^f] [Acea]4) | %2
 ([c_egc'] [_B_b]2 [_E_e-] [GBeg]2 [F_Adf]2 | %3
 [=EG]=B (3:2:2_B2 A (3[Ge])E"_dim."C (3([B,D][CE][DF] | [EG]4 [B,D]2) z ([B,D] | %5
 [CE]>[DF] [EG]4!<(! (3[CE][DF][EG])!<)! | (^G2 A2 c2 BA | A4!p! G4) | (c6 Bc | d3 B E2 A2) | %10
 ([Ec]2 [D_B]4 [CA][_B,G] | [G,_B,^CE]4 (3[F,A,DF])(DE (3FA=c | (([EA-ce]4 (3[DAcd])))(AB (3cba | %13
!f! [FGBg]4) (d2 [EG][DF]) |!f! ([ege']4 [cc']2- (3[cc'][Bb][Aa] | [Gc_eg]3 [^F^f] [Acea]4) | %16
"_dim." (3[_B_g_b]_eB (3_G_E_B,- (3B,=B,C- (3C^CD | ([_G,-_E]4 (3G,_A,=A, (3_B,DE) | %18
 [_A,D]4 (3([_G,_B,]A,=A, (3B,D_E) | ([_G_B]6!<(! [F_A][_EB]!<)! | %20
 [_B,-_D=G]4) (3(B,!>(!_C=C (3_D_FG)!>)! | (([^G,E^G]4 (3G,)(A,^A, (3=B,EG)) | (^G2 ^F2 A3 G) | %23
 (3:2:2(^G2 =G (3^C^A,^G, _B,4 | [=F,_B,_D]4 (3[E,B,C])(G,=B, (3CEG | [CF_Ac]4) (3z (CE (3G_Ac) | %26
 ([_E_Ac_e]6 [FA][EG] | [_B,DF]4) (3z (F,A, (3B,DF | _B)d!f! ([_Af]4 [G_B][F_A]) | %29
!ff! ([G_Bg]4 [_E_e]2- (3[Ee][Dd][Cc] | _B3 A c4) | ([_Bg_b]4 [G_e-g-]2 (3[eg][df][cg] | %32
 [G_B_e]4) (3z"_dim." (_EF (3G_A_B) | c8 | (!arpeggio!c4 _B4) | (!arpeggio!_d4 d4 | (_d4 c4)) | %37
 x8 | x8 | x8 | x4 [CAc]2 [_DB_d][Ec_e] | f8 | [df]2 ([F_df]4 [^F=d^f]2) | %43
!f! ([Gceg]4 [ce-]2 (3edc | [B_e^fb]4) [Aefa]4 | ([Gc=eg]4 [ce-]2"_cresc." (3edc | %46
 (([d^f-a-d']4 [cfac']4))) |!ff! ([egc'e']4 [c-egc'-]2 (3[cc'][Bb][Aa] | [Geg]4 [Ece-]2 (3ecA | %49
 [EG]2) (6:4:6G,/C/E/G/c/e/ ([eg]4- | [eg]2 [CEA]4 [G,B,DG]2) | [E,G,CE]2 x2 E2 (3([B,D][CE][DF] | %52
 [EG]4) G2 (3[B,D][CE][DF] | x8 | E/G/c/e/ [Gg]2 [cc']2 z!ff! !>![ege'] | !fermata![E,C]8 |] %56
V:4
!ped! (3(C,,G,,C, (3E,G,C (3ECG,) E, z!ped-up! | (3(C,,A,,C, (3_E,^F,A, (3CA,_E ^F) z | %2
 (3([_B,,,_B,,]_E,,G,, (3B,,_E,G, _B,2) (3[=B,,=B,]F,D, | (3[C,C]E,G, F,2 G, z!p! G,,2 | %4
 (3(C,,G,,C, (3E,G,C) (3z (F,D, (3B,,G,,) z | (3(C,,G,,C, (3E,G,C (3ECG,) E, z | %6
 (3(C,,_E,,^F,, (3A,,C,_E, (3^F,A,C (3_E^F) z | (3(B,,,D,,G,, (3B,,D,G, B,2 ^A,2) | C4- CB, A,2 | %9
 (3(^G,,,E,,^G,, (3B,,D,E, ^G,2 A,2) | (3(C,,A,,C, (3E,G,C"^r. H." (3E)(^C,,G,, (3_B,,^C,E,) | %11
 (3z (D,,,D,,"^cresc." (3G,,_B,,^C, D,4) | (3([F,,,F,,]C,,F,, (3A,,C,D, (3E,F,G, (3A,B,C) | %13
 (3(DG,A, (3B,CD) z2 G,,2 | (3(C,,G,,C, (3E,G,C (3ECG,) E, z | %15
 (3(C,,A,,C, (3_E,^F,G, (3CA,_E ^F) z | _B,,4- B,,4 |!p! (3(_E,,=E,,F,, (3_G,,_A,,=A,, _B,,4) | %18
 (_C,4 _B,,4) | z2 (_A,,/_G,,/F,,/D,,/ _E,,/F,,/G,,/A,,/ _B,,/C,/D,/_E,/ | %20
"_on score above tr is a b\ndon't know the  meaning" T_F,3 _E,/_D,/ =F,4) | %21
!pp! (3(=E,,^F,,^^F,, (3^G,,A,,^A,, =B,,4) | C,4 (^C,2 ^D,2 | E,2) z2 E,4 | %24
 (3:2:2(G,,2 _A,,"^cresc." (3=A,,_B,,=B,, C,2) z2 | (3([_A,,,_A,,]_B,,=B,,"^cresc." (3C,D,E, F,4) | %26
 (3([F,,,F,,]_A,,=B,, C,F,G, _A,=B,C) | (3([_B,,,B,,]F,,A,, (3B,,D,F, _A,4) | %28
 z2 (3(_B,,,F,,_B,, (3D,F,_B, D) z | (3([_E,,,_E,,]_B,,,E,, (3G,,_B,,_E, (3G,_A,=A,) _B, z | %30
 (3([_E,,,_E,,]^F,,A,, (3C,_E,^F, (3A,F,E, C,) z | %31
 (3([_E,,,_E,,]_B,,,E,, (3G,,_B,,_E, (3G,_A,=A, (3_B,=B,C | (3_D) z _E,, (3_B,,_E,G, [_B,D]4 | %33
!p! (_A,,,/_E,,/_A,,/C,/ _E,/_A,/[I:staff -1]C/E/ A/E/C/[I:staff +1]A,/ E,/C,/A,,/) z/ | %34
!p! (_A,,,/_A,,/_D,/F,/ _A,/C/[I:staff -1]_D/F/ B/F/D/_B,/[I:staff +1] A,/F,/D,/A,,/) | %35
 (_A,,,/_A,,/_D,/F,/ _A,/=C/[I:staff -1]D/F/ _B/G/_E/[I:staff +1]_B,/ G,/_E,/_B,,/) z/ | %36
 _A,,,/_E,,/_A,,/_E,/ z/[I:staff -1] (_D/E/A/ c/_A/E/C/[I:staff +1] _A,/E,/C,/A,,/) | %37
!pp! (G,,,/G,,/C,/_E,/ _A,/[I:staff -1]C/_E/_A/ c/A/E/C/[I:staff +1] A,/E,/C,/G,,/) | %38
"^cresc." (F,,,/F,,/C,/F,/ _A,/[I:staff -1]C/F/_A/ c/A/F/C/[I:staff +1] A,/F,/C,/F,,/) | %39
 (_E,,,/_E,,/_E,/_G,/ _A,/[I:staff -1]C/_G/_A/ c/A/G/C/[I:staff +1] A,/G,/E,/_A,,/) | %40
 _A,,,/_A,,/_E,/_G,/ _A,/[I:staff -1]C/_E/_A/[I:staff +1] x4 | %41
 _D,,/_A,,/_D,/F,/ _A,/[I:staff -1]F/A/d/ f/d/A/F/[I:staff +1] _D/A,/F,/D,/ | %42
 [_A,,,_A,,]2 (_D4 =D2) | ([G,,,G,,]C,,/G,,/ C,/E,/G,/C/ E2- (3EDC) | [G,C_E^F]8 | %45
 ([G,,,G,,]C,,/G,,/ C,/E,/G,/C/ E2- (3EDC) | [A,C^F]8 | (3([G,,,G,,]C,E, (3G,CE (3GEC (3G,E,C,) | %48
 (3(G,,G,,,G,, (3C,E,G, (3CG,C (3ECA,) | G,/G,,/C,/E,/ x2 z2 G2- | G2 ^F,4 [G,,=F,]2 | %51
 [C,,C,]C,,/G,,/ C,/"^dim."[I:staff -1]E,/G,/C/[I:staff +1] x2 [G,,-F,]2 | %52
 [G,,E,]/C,,/G,,/C,/ E,/[I:staff -1]G,/C/E/[I:staff +1] x2 [G,,F,]2 | %53
 [C,,G,,C,E,]C,,/G,,/ C,/E,/[I:staff -1]G,/C/[I:staff +1] (3z C,,G,, C,/E,/[I:staff -1]G,/C/ | %54
[I:staff +1] z2 ([E,C]2 [G,E]2) z[K:treble] !>![CGc] |[K:bass] !fermata![C,,G,,C,]8 |] %56
V:5
 x8 | x8 | x8 | [c=e-]2 (3egf x4 | x8 | x8 | [_E^F]8 | D4 G2 ^F2 | =F2 EF A2 GF | E4 D2 C2 | x8 | %11
 x8 | x8 | x4 (3BGF B,2 | x8 | x8 | x2 _G4 F2 | x8 | _G3 F F2 x2 | x8 | x8 | x8 | [=A,^D]4 E4 | %23
 [^A,^C]2 x2 =G,3 ^F, | x8 | x8 | x8 | x8 | x8 | x8 | [_E^F]4 C4 | x8 | x8 | [C_E_A]2 x6 | %34
 !arpeggio![CF_A]2 x6 | !arpeggio![_DF_A]2 x6 | [_D_E_A]2 x6 | x8 | x8 | x8 | x8 | %41
 [F_A_d]2 x4 !>![df]2- | x4 c4 | x8 | x8 | x8 | x8 | x8 | x8 | x8 | x8 | x8 | G,2 x4 G,2- | %53
 [EG]2 x2"^cresc." E x3 | x8 | x8 |] %56
V:6
 x8 | x8 | x8 | x2 (3C^CD =C x3 | x8 | x8 | x8 | x4 B,4 | =A,3 G, F,4 | x8 | x8 | x8 | x8 | x8 | %14
 x8 | x8 | x4 (_B,>A, _A,>G,) | x8 | x8 | x8 | x8 | x8 | x8 | x4 =F,,3 ^F,, | G,,4- G,,2 x2 | x8 | %26
 x8 | x8 | x8 | x8 | x8 | x8 | x8 | x8 | x8 | x8 | x2 _A, x5 | x8 | x8 | x8 | x8 | x8 | x2 _A,6 | %43
 x8 | x8 | x8 | (D6 _E2) | x8 | x8 | x8 | x8 | x8 | x8 | x8 | x7[K:treble] x |[K:bass] x8 |] %56
V:7
 x8 | x8 | x8 | x8 | x8 | x8 | C4 x4 | x8 | x8 | x8 | x8 | x8 | x8 | x8 | x8 | x8 | x8 | x8 | x8 | %19
 x8 | x8 | x8 | x4 A,2 =B,2 | x8 | x8 | x8 | x8 | x8 | x8 | x8 | _B,3 A, x4 | x8 | x8 | x8 | x8 | %35
 x8 | x8 | x8 | x8 | x8 | x8 | x8 | x8 | x8 | x8 | x8 | x8 | x8 | x8 | x8 | x8 | x6 G,2- | x8 | %53
 G,2 x6 | x8 | x8 |] %56
V:8
 x8 | x8 | x8 | x8 | x8 | x8 | x8 | x8 | x8 | x8 | x8 | x8 | x8 | x8 | x8 | x8 | x8 | x8 | x8 | %19
 x8 | x8 | x8 | x8 | x8 | x8 | x8 | x8 | x8 | x8 | x8 | x8 | x8 | x8 | x8 | x8 | x8 | x8 | x8 | %38
 x8 | x8 | x8 | x8 | x4 C4 | x8 | x8 | x8 | x8 | x8 | x8 | x8 | x8 | x8 | x8 | x8 | %54
 x7[K:treble] x |[K:bass] x8 |] %56

